X: 125
T: Toss the Feathers
M: C|
L: 1/8
R: reel
D: Silly Wizard "Live Wizardry" CD
Z: 2006 John Chambers <jc:trillian.mit.edu>
K:EDor
|: "Em"EB~B2 dB~B2 | EBBA "D"FDFA | "Em"BE~E2 B2Bc |1"D"defe dBAF :|2 "D"defe dBA2 |
|| "Em"Beed ~e2de | "D"fede "Em"fe~e2 | (3gfe be (3gfe be | "D"fede "Em"ge~e2 |
|  "Em"Beed ~e2de | "D"faaf "Em"~a2 fa | "G"b2bf "D"a2af | "Em"egfe "D"dBAF |]

%%sep 1 1 500

